docs/media/cursor/cur9.svg

<?xml version="1.0" encoding="UTF-8"?>
<!DOCTYPE svg  PUBLIC '-//W3C//DTD SVG 1.1//EN'  'http://www.w3.org/Graphics/SVG/1.1/DTD/svg11.dtd'>
<svg version="1.1" viewBox="0 0 640 640" xmlns="http://www.w3.org/2000/svg" xmlns:xlink="http://www.w3.org/1999/xlink">
<defs>
<path id="a" d="m420 322.9c0 69.99-57.15 126.81-127.54 126.81s-127.53-56.82-127.53-126.81 57.14-126.81 127.53-126.81 127.54 56.82 127.54 126.81z"/>
<path id="d" d="m488.59 318.12c0 108.87-88.49 197.25-197.5 197.25-109 0-197.5-88.38-197.5-197.25 0-108.86 88.5-197.25 197.5-197.25 109.01 0 197.5 88.39 197.5 197.25z"/>
<path id="c" d="m449.55 315.17c0.7 89.27-70.2 162.31-158.23 163s-160.06-71.23-160.76-160.51c-0.7-89.27 70.2-162.3 158.23-162.99 88.02-0.69 160.06 71.23 160.76 160.5z"/>
<path id="b" d="m425.52 322.9c0 72.21-58.7 130.83-131 130.83s-131-58.62-131-130.83 58.7-130.83 131-130.83 131 58.62 131 130.83z"/>
</defs>
<use fill="#13e2de" xlink:href="#a"/>
<use fill-opacity="0" stroke="#12e2de" stroke-opacity=".44" stroke-width="9" xlink:href="#a"/>
<use fill-opacity="0" stroke="#f1f0e3" xlink:href="#d"/>
<use fill-opacity="0" stroke="#f1f0e3" stroke-width="6" xlink:href="#c"/>
<use fill-opacity="0" stroke="#f1f0e3" xlink:href="#b"/>
</svg>

<?xml version="1.0" encoding="UTF-8" standalone="no"?>
<!DOCTYPE svg PUBLIC "-//W3C//DTD SVG 1.1//EN" "http://www.w3.org/Graphics/SVG/1.1/DTD/svg11.dtd">
<svg version="1.1" xmlns="http://www.w3.org/2000/svg" xmlns:xlink="http://www.w3.org/1999/xlink" preserveAspectRatio="xMidYMid meet" viewBox="0 0 640 640" width="640" height="640"><defs><path d="M420 322.9C420 392.89 362.85 449.71 292.46 449.71C222.07 449.71 164.93 392.89 164.93 322.9C164.93 252.91 222.07 196.09 292.46 196.09C362.85 196.09 420 252.91 420 322.9Z" id="d1Tp7u8TvT"></path><path d="M488.59 318.12C488.59 426.99 400.1 515.37 291.09 515.37C182.09 515.37 93.59 426.99 93.59 318.12C93.59 209.26 182.09 120.87 291.09 120.87C400.1 120.87 488.59 209.26 488.59 318.12Z" id="a3D7yvoSYq"></path><path d="M449.55 315.17C450.25 404.44 379.35 477.48 291.32 478.17C203.29 478.86 131.26 406.94 130.56 317.66C129.86 228.39 200.76 155.36 288.79 154.67C376.81 153.98 448.85 225.9 449.55 315.17Z" id="aggh1RX7B"></path><path d="M425.52 322.9C425.52 395.11 366.82 453.73 294.52 453.73C222.22 453.73 163.52 395.11 163.52 322.9C163.52 250.69 222.22 192.07 294.52 192.07C366.82 192.07 425.52 250.69 425.52 322.9Z" id="dBHp5tcpe"></path></defs><g><g><g><use xlink:href="#d1Tp7u8TvT" opacity="1" fill="#13e2de" fill-opacity="1"></use><g><use xlink:href="#d1Tp7u8TvT" opacity="1" fill-opacity="0" stroke="#12e2de" stroke-width="9" stroke-opacity="0.44"></use></g></g><g><g><use xlink:href="#a3D7yvoSYq" opacity="1" fill-opacity="0" stroke="#f1f0e3" stroke-width="1" stroke-opacity="1"></use></g></g><g><g><use xlink:href="#aggh1RX7B" opacity="1" fill-opacity="0" stroke="#f1f0e3" stroke-width="6" stroke-opacity="1"></use></g></g><g><g><use xlink:href="#dBHp5tcpe" opacity="1" fill-opacity="0" stroke="#f1f0e3" stroke-width="1" stroke-opacity="1"></use></g></g></g></g></svg>
